X:4425
T:Mrs Angela MacAskill of Littlehampton
O:england
M:6/8
L:1/8
C:Stephen McNally
K:D
|:D>DD D>DD|F>DA G>FE|D>DD F>DA|G>FE G>FE|
D>DD D>DD|F>DA G>FG|E>FG F>GA|1G>AB A>GF:|2G>AB A>Bc|
|:d>dd A>dF|d>Ad B>dG|d>dd A>dF|E>FG A>Bc|
d>dd A>dF|d>Ad B>dG|A>AA B>cd|1e>Bc d>dd:|2e>Bc d>AG|
|:F>FF D>FD|F>DG D>AD|F>FF D>FD|E>DF D>GD|
F>FF D>FD|F>DG D>AD|G>DA D>BD|A>DB D>cD:|
|:d>dd A>dF|d>Ad B>dG|d>dd A>dF|E>FG A>Bc|
d>dd A>dF|d>Ad B>dG|A>AA B>cd|1e>Bc d>dd:|2e>Bc d3


